; generated by Slic3r 0.9.10b on 2013-07-22 at 10:28:43

; layer_height = 0.4
; perimeters = 3
; top_solid_layers = 3
; bottom_solid_layers = 3
; fill_density = 0.4
; perimeter_speed = 30
; infill_speed = 60
; travel_speed = 130
; nozzle_diameter = 0.5
; filament_diameter = 1.75
; extrusion_multiplier = 1
; perimeters extrusion width = 0.53mm
; infill extrusion width = 0.53mm
; solid infill extrusion width = 0.53mm
; top infill extrusion width = 0.53mm
; first layer extrusion width = 1.00mm

G21 ; set units to millimeters
M107
M190 S65 ; wait for bed temperature to be reached
M104 S185 ; set temperature
G28 ; home all axes
G1 Z5 F5000 ; lift nozzle

M109 S185 ; wait for temperature to be reached
G90 ; use absolute coordinates
G92 E0
M82 ; use absolute distances for extrusion
G1 F1800.000 E-1.00000
G92 E0
G1 Z0.500 F7800.000
G1 X35.520 Y17.386
G1 F1800.000 E1.00000
G1 X36.160 Y16.196 F540.000 E1.25074
G1 X37.020 Y15.156 E1.50117
G1 X38.060 Y14.296 E1.75160
G1 X39.250 Y13.656 E2.00234
G1 X40.550 Y13.266 E2.25421
G1 X41.890 Y13.136 E2.50404
G1 X97.950 Y13.136 E12.90712
G1 X99.290 Y13.266 E13.15696
G1 X100.590 Y13.656 E13.40882
G1 X101.780 Y14.296 E13.65956
G1 X102.820 Y15.156 E13.90999
G1 X103.680 Y16.196 E14.16042
G1 X104.320 Y17.386 E14.41116
G1 X104.710 Y18.686 E14.66303
G1 X104.840 Y20.026 E14.91286
G1 X104.840 Y119.966 E33.45878
G1 X104.710 Y121.306 E33.70861
G1 X104.320 Y122.606 E33.96048
G1 X103.680 Y123.796 E34.21122
G1 X102.820 Y124.836 E34.46165
G1 X101.780 Y125.696 E34.71208
G1 X100.590 Y126.336 E34.96282
G1 X99.290 Y126.726 E35.21468
G1 X97.950 Y126.856 E35.46451
G1 X41.890 Y126.856 E45.86760
G1 X40.550 Y126.726 E46.11743
G1 X39.250 Y126.336 E46.36930
G1 X38.060 Y125.696 E46.62004
G1 X37.020 Y124.836 E46.87047
G1 X36.160 Y123.796 E47.12090
G1 X35.520 Y122.606 E47.37164
G1 X35.130 Y121.306 E47.62350
G1 X35.000 Y119.966 E47.87333
G1 X35.000 Y20.026 E66.41926
G1 X35.130 Y18.686 E66.66909
G1 X35.482 Y17.515 E66.89610
G1 F1800.000 E65.89610
G92 E0
G1 X44.122 Y114.017 F7800.000
G1 F1800.000 E1.00000
G1 X76.392 Y114.017 F540.000 E6.98845
G1 X76.392 Y108.810 E7.95466
G1 X95.722 Y108.810 E11.54169
G1 X95.722 Y117.742 E13.19917
G1 X44.122 Y117.742 E22.77464
G1 X44.122 Y114.151 E23.44106
G1 X44.122 Y101.324 F7800.000
G1 X44.122 Y97.370 F540.000 E24.17480
G1 X76.392 Y97.370 E30.16325
G1 X76.392 Y94.662 E30.66580
G1 X95.722 Y94.662 E34.25283
G1 X95.722 Y103.593 E35.91031
G1 X76.392 Y103.593 E39.49734
G1 X76.392 Y101.324 E39.91852
G1 X44.256 Y101.324 E45.88211
G1 X44.122 Y84.008 F7800.000
G1 X44.122 Y80.155 F540.000 E46.59716
G1 X95.722 Y80.155 E56.17263
G1 X95.722 Y89.087 E57.83011
G1 X76.392 Y89.087 E61.41714
G1 X76.392 Y84.008 E62.35957
G1 X44.256 Y84.008 E68.32317
G1 X44.122 Y74.882 F7800.000
G1 X44.122 Y71.798 F540.000 E68.89555
G1 X76.392 Y71.798 E74.88400
G1 X76.392 Y65.951 E75.96910
G1 X95.722 Y65.951 E79.55612
G1 X95.722 Y74.882 E81.21360
G1 X44.256 Y74.882 E90.76423
G1 X44.122 Y58.858 F7800.000
G1 X44.122 Y55.087 F540.000 E91.46414
G1 X76.392 Y55.087 E97.45258
G1 X76.392 Y51.802 E98.06214
G1 X95.722 Y51.802 E101.64917
G1 X95.722 Y60.734 E103.30664
G1 X76.392 Y60.734 E106.89367
G1 X76.392 Y58.858 E107.24169
G1 X44.256 Y58.858 E113.20529
G1 X44.122 Y42.650 F7800.000
G1 X44.122 Y38.878 F540.000 E113.90519
G1 X76.392 Y38.878 E119.89364
G1 X76.392 Y37.003 E120.24166
G1 X95.722 Y37.003 E123.82868
G1 X95.722 Y45.935 E125.48616
G1 X76.392 Y45.935 E129.07319
G1 X76.392 Y42.650 E129.68274
G1 X44.256 Y42.650 E135.64634
G1 X44.122 Y25.983 F7800.000
G1 X44.122 Y22.258 F540.000 E136.33761
G1 X95.722 Y22.258 E145.91308
G1 X95.722 Y31.190 E147.57056
G1 X76.392 Y31.190 E151.15759
G1 X76.392 Y25.983 E152.12380
G1 X44.256 Y25.983 E158.08740
G1 X45.409 Y26.876 F7800.000
G1 X45.409 Y37.985 F540.000 E160.14903
G1 X75.500 Y37.985 E165.73289
G1 X75.500 Y36.110 E166.08090
G1 X96.615 Y36.110 E169.99925
G1 X96.615 Y46.827 E171.98805
G1 X75.500 Y46.827 E175.90639
G1 X75.500 Y43.542 E176.51595
G1 X45.409 Y43.542 E182.09981
G1 X45.409 Y54.194 E184.07639
G1 X75.500 Y54.194 E189.66025
G1 X75.500 Y50.909 E190.26981
G1 X96.615 Y50.909 E194.18816
G1 X96.615 Y61.626 E196.17695
G1 X75.500 Y61.626 E200.09530
G1 X75.500 Y59.751 E200.44331
G1 X45.409 Y59.751 E206.02717
G1 X45.409 Y70.905 E208.09707
G1 X75.500 Y70.905 E213.68094
G1 X75.500 Y65.058 E214.76603
G1 X96.615 Y65.058 E218.68438
G1 X96.615 Y75.775 E220.67318
G1 X45.409 Y75.775 E230.17538
G1 X45.409 Y79.262 E230.82254
G1 X96.615 Y79.262 E240.32474
G1 X96.615 Y89.980 E242.31354
G1 X75.500 Y89.980 E246.23189
G1 X75.500 Y84.901 E247.17432
G1 X45.409 Y84.901 E252.75818
G1 X45.409 Y96.477 E254.90635
G1 X75.500 Y96.477 E260.49021
G1 X75.500 Y93.769 E260.99276
G1 X96.615 Y93.769 E264.91111
G1 X96.615 Y104.486 E266.89990
G1 X75.500 Y104.486 E270.81825
G1 X75.500 Y102.216 E271.23943
G1 X45.409 Y102.216 E276.82329
G1 X45.409 Y113.124 E278.84746
G1 X75.500 Y113.124 E284.43132
G1 X75.500 Y107.918 E285.39754
G1 X96.615 Y107.918 E289.31588
G1 X96.615 Y118.635 E291.30468
G1 X43.229 Y118.635 E301.21147
G1 X43.229 Y21.365 E319.26181
G1 X96.615 Y21.365 E329.16860
G1 X96.615 Y32.082 E331.15740
G1 X75.500 Y32.082 E335.07575
G1 X75.500 Y26.876 E336.04196
G1 X45.543 Y26.876 E341.60097
G1 X46.302 Y27.768 F7800.000
G1 X46.302 Y37.093 F378.000 E343.33128
G1 X74.607 Y37.093 E348.58382
G1 X74.607 Y35.217 E348.93184
G1 X97.508 Y35.217 E353.18150
G1 X97.508 Y47.720 E355.50162
G1 X74.607 Y47.720 E359.75128
G1 X74.607 Y44.435 E360.36083
G1 X46.302 Y44.435 E365.61338
G1 X46.302 Y53.301 E367.25865
G1 X74.607 Y53.301 E372.51119
G1 X74.607 Y50.016 E373.12074
G1 X97.508 Y50.016 E377.37041
G1 X97.508 Y62.519 E379.69052
G1 X74.607 Y62.519 E383.94018
G1 X74.607 Y60.644 E384.28820
G1 X46.302 Y60.644 E389.54074
G1 X46.302 Y70.012 E391.27933
G1 X74.607 Y70.012 E396.53187
G1 X74.607 Y64.165 E397.61697
G1 X97.508 Y64.165 E401.86664
G1 X97.508 Y76.668 E404.18675
G1 X46.302 Y76.668 E413.68895
G1 X46.302 Y78.370 E414.00479
G1 X97.508 Y78.370 E423.50700
G1 X97.508 Y90.872 E425.82711
G1 X74.607 Y90.872 E430.07677
G1 X74.607 Y85.794 E431.01921
G1 X46.302 Y85.794 E436.27175
G1 X46.302 Y95.584 E438.08860
G1 X74.607 Y95.584 E443.34114
G1 X74.607 Y92.876 E443.84370
G1 X97.508 Y92.876 E448.09336
G1 X97.508 Y105.379 E450.41347
G1 X74.607 Y105.379 E454.66314
G1 X74.607 Y103.109 E455.08432
G1 X46.302 Y103.109 E460.33686
G1 X46.302 Y112.232 E462.02972
G1 X74.607 Y112.232 E467.28226
G1 X74.607 Y107.025 E468.24847
G1 X97.508 Y107.025 E472.49814
G1 X97.508 Y119.527 E474.81825
G1 X42.337 Y119.527 E485.05636
G1 X42.337 Y20.473 E503.43802
G1 X97.508 Y20.473 E513.67613
G1 X97.508 Y32.975 E515.99624
G1 X74.607 Y32.975 E520.24590
G1 X74.607 Y27.768 E521.21212
G1 X46.436 Y27.768 E526.43981
G1 X45.409 Y27.768 F7800.000
G1 X45.844 Y117.095
G1 X44.769 Y116.020 F1080.000 E526.72349
G1 X44.769 Y114.751 E526.96030
G1 X47.113 Y117.095 E527.57887
G1 X48.383 Y117.095 E527.81568
G1 X45.952 Y114.664 E528.45708
G1 X47.221 Y114.664 E528.69389
G1 X49.652 Y117.095 E529.33529
G1 X50.921 Y117.095 E529.57210
G1 X48.490 Y114.664 E530.21349
G1 X49.760 Y114.664 E530.45030
G1 X52.191 Y117.095 E531.09170
G1 X53.460 Y117.095 E531.32851
G1 X51.029 Y114.664 E531.96991
G1 X52.298 Y114.664 E532.20672
G1 X54.729 Y117.095 E532.84812
G1 X55.998 Y117.095 E533.08493
G1 X53.567 Y114.664 E533.72632
G1 X54.837 Y114.664 E533.96313
G1 X57.268 Y117.095 E534.60453
G1 X58.537 Y117.095 E534.84134
G1 X56.106 Y114.664 E535.48274
G1 X57.375 Y114.664 E535.71955
G1 X59.806 Y117.095 E536.36095
G1 X61.075 Y117.095 E536.59776
G1 X58.645 Y114.664 E537.23915
G1 X59.914 Y114.664 E537.47596
G1 X62.345 Y117.095 E538.11736
G1 X63.614 Y117.095 E538.35417
G1 X61.183 Y114.664 E538.99557
G1 X62.452 Y114.664 E539.23238
G1 X64.883 Y117.095 E539.87378
G1 X66.153 Y117.095 E540.11059
G1 X63.722 Y114.664 E540.75198
G1 X64.991 Y114.664 E540.98879
G1 X67.422 Y117.095 E541.63019
G1 X68.691 Y117.095 E541.86700
G1 X66.260 Y114.664 E542.50840
G1 X67.529 Y114.664 E542.74521
G1 X69.960 Y117.095 E543.38661
G1 X71.230 Y117.095 E543.62342
G1 X68.799 Y114.664 E544.26482
G1 X70.068 Y114.664 E544.50163
G1 X72.499 Y117.095 E545.14302
G1 X73.768 Y117.095 E545.37983
G1 X71.337 Y114.664 E546.02123
G1 X72.607 Y114.664 E546.25804
G1 X75.037 Y117.095 E546.89944
G1 X76.307 Y117.095 E547.13625
G1 X73.876 Y114.664 E547.77765
G1 X75.145 Y114.664 E548.01446
G1 X77.576 Y117.095 E548.65585
G1 X78.845 Y117.095 E548.89266
G1 X76.414 Y114.664 E549.53406
G1 X77.039 Y114.020 E549.70153
G1 X80.115 Y117.095 E550.51289
G1 X81.384 Y117.095 E550.74970
G1 X77.039 Y112.751 E551.89596
G1 X77.039 Y111.481 E552.13277
G1 X82.653 Y117.095 E553.61393
G1 X83.922 Y117.095 E553.85074
G1 X77.039 Y110.212 E555.66680
G1 X77.554 Y109.457 E555.83722
G1 X85.192 Y117.095 E557.85242
G1 X86.461 Y117.095 E558.08923
G1 X78.823 Y109.457 E560.10442
G1 X80.093 Y109.457 E560.34123
G1 X87.730 Y117.095 E562.35643
G1 X88.999 Y117.095 E562.59324
G1 X81.362 Y109.457 E564.60843
G1 X82.631 Y109.457 E564.84524
G1 X90.269 Y117.095 E566.86044
G1 X91.538 Y117.095 E567.09725
G1 X83.900 Y109.457 E569.11245
G1 X85.170 Y109.457 E569.34926
G1 X92.807 Y117.095 E571.36445
G1 X94.077 Y117.095 E571.60126
G1 X86.439 Y109.457 E573.61646
G1 X87.708 Y109.457 E573.85327
G1 X95.075 Y116.824 E575.79701
G1 X95.075 Y115.555 E576.03382
G1 X88.977 Y109.457 E577.64267
G1 X90.247 Y109.457 E577.87948
G1 X95.075 Y114.286 E579.15343
G1 X95.075 Y113.016 E579.39024
G1 X91.516 Y109.457 E580.32928
G1 X92.785 Y109.457 E580.56609
G1 X95.075 Y111.747 E581.17024
G1 X95.075 Y110.478 E581.40705
G1 X94.055 Y109.457 E581.67630
G1 F1800.000 E580.67630
G92 E0
G1 X101.110 Y121.216 F7800.000
G1 X99.352 Y122.974
G1 X40.648 Y122.974
G1 X38.890 Y121.216
G1 X44.358 Y113.071
G1 F1800.000 E1.00000
G1 X44.175 Y112.888 F360.000 E1.04828
G1 X44.463 Y111.906 E1.23911
G1 X44.175 Y111.618 E1.31503
G1 X44.463 Y110.637 E1.50586
G1 X44.175 Y110.349 E1.58178
G1 X44.463 Y109.368 E1.77262
G1 X44.175 Y109.080 E1.84853
G1 X44.463 Y108.098 E2.03937
G1 X44.175 Y107.811 E2.11529
G1 X44.463 Y106.829 E2.30612
G1 X44.175 Y106.541 E2.38204
G1 X44.463 Y105.560 E2.57287
G1 X44.175 Y105.272 E2.64879
G1 X44.463 Y104.291 E2.83962
G1 X44.175 Y104.003 E2.91554
G1 X44.463 Y103.021 E3.10638
G1 X44.175 Y102.734 E3.18229
G1 X45.926 Y100.677 F7800.000
G1 X44.769 Y99.519 F1080.000 E3.48603
G1 X44.769 Y98.250 F7800.000
G1 X47.196 Y100.677 F1080.000 E4.12287
G1 X48.465 Y100.677 F7800.000
G1 X45.805 Y98.017 F1080.000 E4.82090
G1 X47.074 Y98.017 F7800.000
G1 X49.734 Y100.677 F1080.000 E5.51893
G1 X51.003 Y100.677 F7800.000
G1 X48.344 Y98.017 F1080.000 E6.21696
G1 X49.613 Y98.017 F7800.000
G1 X52.273 Y100.677 F1080.000 E6.91499
G1 X53.542 Y100.677 F7800.000
G1 X50.882 Y98.017 F1080.000 E7.61302
G1 X52.151 Y98.017 F7800.000
G1 X54.811 Y100.677 F1080.000 E8.31105
G1 X56.081 Y100.677 F7800.000
G1 X53.421 Y98.017 F1080.000 E9.00908
G1 X54.690 Y98.017 F7800.000
G1 X57.350 Y100.677 F1080.000 E9.70711
G1 X58.619 Y100.677 F7800.000
G1 X55.959 Y98.017 F1080.000 E10.40515
G1 X57.229 Y98.017 F7800.000
G1 X59.888 Y100.677 F1080.000 E11.10318
G1 X61.158 Y100.677 F7800.000
G1 X58.498 Y98.017 F1080.000 E11.80121
G1 X59.767 Y98.017 F7800.000
G1 X62.427 Y100.677 F1080.000 E12.49924
G1 X63.696 Y100.677 F7800.000
G1 X61.036 Y98.017 F1080.000 E13.19727
G1 X62.306 Y98.017 F7800.000
G1 X64.965 Y100.677 F1080.000 E13.89530
G1 X66.235 Y100.677 F7800.000
G1 X63.575 Y98.017 F1080.000 E14.59333
G1 X64.844 Y98.017 F7800.000
G1 X67.504 Y100.677 F1080.000 E15.29136
G1 X68.773 Y100.677 F7800.000
G1 X66.114 Y98.017 F1080.000 E15.98939
G1 X67.383 Y98.017 F7800.000
G1 X70.043 Y100.677 F1080.000 E16.68742
G1 X71.312 Y100.677 F7800.000
G1 X68.652 Y98.017 F1080.000 E17.38546
G1 X69.921 Y98.017 F7800.000
G1 X72.581 Y100.677 F1080.000 E18.08349
G1 X73.850 Y100.677 F7800.000
G1 X71.191 Y98.017 F1080.000 E18.78152
G1 X72.460 Y98.017 F7800.000
G1 X75.120 Y100.677 F1080.000 E19.47955
G1 X76.389 Y100.677 F7800.000
G1 X73.729 Y98.017 F1080.000 E20.17758
G1 X74.998 Y98.017 F7800.000
G1 X79.928 Y102.946 F1080.000 E21.47124
G1 X78.659 Y102.946 F7800.000
G1 X77.039 Y101.327 F1080.000 E21.89616
G1 X77.039 Y102.596 F7800.000
G1 X77.389 Y102.946 F1080.000 E21.98797
G1 X81.197 Y102.946 F7800.000
G1 X76.268 Y98.017 F1080.000 E23.28163
G1 X77.039 Y97.519 F7800.000
G1 X82.466 Y102.946 F1080.000 E24.70586
G1 X83.736 Y102.946 F7800.000
G1 X77.039 Y96.250 F1080.000 E26.46318
G1 X77.367 Y95.309 F7800.000
G1 X85.005 Y102.946 F1080.000 E28.46757
G1 X86.274 Y102.946 F7800.000
G1 X78.637 Y95.309 F1080.000 E30.47196
G1 X79.906 Y95.309 F7800.000
G1 X87.544 Y102.946 F1080.000 E32.47634
G1 X88.813 Y102.946 F7800.000
G1 X81.175 Y95.309 F1080.000 E34.48073
G1 X82.444 Y95.309 F7800.000
G1 X90.082 Y102.946 F1080.000 E36.48512
G1 X91.351 Y102.946 F7800.000
G1 X83.714 Y95.309 F1080.000 E38.48951
G1 X84.983 Y95.309 F7800.000
G1 X92.621 Y102.946 F1080.000 E40.49389
G1 X93.890 Y102.946 F7800.000
G1 X86.252 Y95.309 F1080.000 E42.49828
G1 X87.522 Y95.309 F7800.000
G1 X95.075 Y102.862 F1080.000 E44.48059
G1 X95.075 Y101.593 F7800.000
G1 X88.791 Y95.309 F1080.000 E46.12980
G1 X90.060 Y95.309 F7800.000
G1 X95.075 Y100.324 F1080.000 E47.44591
G1 X95.075 Y99.054 F7800.000
G1 X91.329 Y95.309 F1080.000 E48.42891
G1 X92.599 Y95.309 F7800.000
G1 X95.075 Y97.785 F1080.000 E49.07881
G1 X95.075 Y96.516 F7800.000
G1 X93.868 Y95.309 F1080.000 E49.39560
G1 F1800.000 E48.39560
G92 E0
G1 X97.454 Y92.930 F7800.000
G1 X74.661 Y95.638
G1 X46.249 Y95.638
G1 X44.212 Y96.423
G1 F1800.000 E1.00000
G1 X44.175 Y96.387 F360.000 E1.00953
G1 X44.463 Y95.406 F7800.000
G1 X44.175 Y95.118 F360.000 E1.08504
G1 X44.463 Y94.136 F7800.000
G1 X44.175 Y93.849 F360.000 E1.16055
G1 X44.463 Y92.867 F7800.000
G1 X44.175 Y92.579 F360.000 E1.23606
G1 X44.463 Y91.598 F7800.000
G1 X44.175 Y91.310 F360.000 E1.31157
G1 X44.463 Y90.329 F7800.000
G1 X44.175 Y90.041 F360.000 E1.38708
G1 X44.463 Y89.059 F7800.000
G1 X44.175 Y88.771 F360.000 E1.46259
G1 X44.463 Y87.790 F7800.000
G1 X44.175 Y87.502 F360.000 E1.53811
G1 X44.463 Y86.521 F7800.000
G1 X44.175 Y86.233 F360.000 E1.61362
G1 X44.463 Y85.251 F7800.000
G1 X44.175 Y84.964 F360.000 E1.68913
G1 X45.112 Y83.361 F7800.000
G1 X44.769 Y83.019 F1080.000 E1.77902
G1 X44.769 Y81.749 F7800.000
G1 X46.381 Y83.361 F1080.000 E2.20202
G1 X47.650 Y83.361 F7800.000
G1 X45.091 Y80.802 F1080.000 E2.87360
G1 X46.360 Y80.802 F7800.000
G1 X48.919 Y83.361 F1080.000 E3.54519
G1 X50.189 Y83.361 F7800.000
G1 X47.630 Y80.802 F1080.000 E4.21677
G1 X48.899 Y80.802 F7800.000
G1 X51.458 Y83.361 F1080.000 E4.88835
G1 X52.727 Y83.361 F7800.000
G1 X50.168 Y80.802 F1080.000 E5.55994
G1 X51.437 Y80.802 F7800.000
G1 X53.996 Y83.361 F1080.000 E6.23152
G1 X55.266 Y83.361 F7800.000
G1 X52.707 Y80.802 F1080.000 E6.90310
G1 X53.976 Y80.802 F7800.000
G1 X56.535 Y83.361 F1080.000 E7.57468
G1 X57.804 Y83.361 F7800.000
G1 X55.245 Y80.802 F1080.000 E8.24627
G1 X56.515 Y80.802 F7800.000
G1 X59.074 Y83.361 F1080.000 E8.91785
G1 X60.343 Y83.361 F7800.000
G1 X57.784 Y80.802 F1080.000 E9.58943
G1 X59.053 Y80.802 F7800.000
G1 X61.612 Y83.361 F1080.000 E10.26101
G1 X62.881 Y83.361 F7800.000
G1 X60.322 Y80.802 F1080.000 E10.93260
G1 X61.592 Y80.802 F7800.000
G1 X64.151 Y83.361 F1080.000 E11.60418
G1 X65.420 Y83.361 F7800.000
G1 X62.861 Y80.802 F1080.000 E12.27576
G1 X64.130 Y80.802 F7800.000
G1 X66.689 Y83.361 F1080.000 E12.94734
G1 X67.958 Y83.361 F7800.000
G1 X65.399 Y80.802 F1080.000 E13.61893
G1 X66.669 Y80.802 F7800.000
G1 X69.228 Y83.361 F1080.000 E14.29051
G1 X70.497 Y83.361 F7800.000
G1 X67.938 Y80.802 F1080.000 E14.96209
G1 X69.207 Y80.802 F7800.000
G1 X71.766 Y83.361 F1080.000 E15.63368
G1 X73.036 Y83.361 F7800.000
G1 X70.477 Y80.802 F1080.000 E16.30526
G1 X71.746 Y80.802 F7800.000
G1 X74.305 Y83.361 F1080.000 E16.97684
G1 X75.574 Y83.361 F7800.000
G1 X73.015 Y80.802 F1080.000 E17.64842
G1 X74.284 Y80.802 F7800.000
G1 X76.843 Y83.361 F1080.000 E18.32001
G1 X77.039 Y83.557 F7800.000
G1 X81.922 Y88.440 F1080.000 E19.60135
G1 X80.653 Y88.440 F7800.000
G1 X77.039 Y84.827 F1080.000 E20.54960
G1 X77.039 Y86.096 F7800.000
G1 X79.383 Y88.440 F1080.000 E21.16474
